tools/panel_16/update-none.svg

<?xml version="1.0" encoding="UTF-8" standalone="no"?>
<svg
   xmlns:dc="http://purl.org/dc/elements/1.1/"
   xmlns:cc="http://creativecommons.org/ns#"
   xmlns:rdf="http://www.w3.org/1999/02/22-rdf-syntax-ns#"
   xmlns:svg="http://www.w3.org/2000/svg"
   xmlns="http://www.w3.org/2000/svg"
   xmlns:sodipodi="http://sodipodi.sourceforge.net/DTD/sodipodi-0.dtd"
   xmlns:inkscape="http://www.inkscape.org/namespaces/inkscape"
   width="16"
   height="16"
   version="1.1"
   id="svg2"
   inkscape:version="0.91 r13725"
   sodipodi:docname="update-none.svg">
  <metadata
     id="metadata13">
    <rdf:RDF>
      <cc:Work
         rdf:about="">
        <dc:format>image/svg+xml</dc:format>
        <dc:type
           rdf:resource="http://purl.org/dc/dcmitype/StillImage" />
      </cc:Work>
    </rdf:RDF>
  </metadata>
  <sodipodi:namedview
     pagecolor="#ffffff"
     bordercolor="#666666"
     borderopacity="1"
     objecttolerance="10"
     gridtolerance="10"
     guidetolerance="10"
     inkscape:pageopacity="0"
     inkscape:pageshadow="2"
     inkscape:window-width="1920"
     inkscape:window-height="1016"
     id="namedview11"
     showgrid="false"
     inkscape:zoom="14.75"
     inkscape:cx="8"
     inkscape:cy="8"
     inkscape:window-x="0"
     inkscape:window-y="34"
     inkscape:window-maximized="1"
     inkscape:current-layer="svg2" />
  <defs
     id="defs4">
    <style
       id="current-color-scheme"
       type="text/css">
   .ColorScheme-Text { color:#d3dae3; } .ColorScheme-Highlight { color:#5294e2; }
  </style>
  </defs>
  <g
     id="g7"
     transform="translate(-1,0)">
    <path
       style="fill:#d3dae3;fill-opacity:1"
       d="M 8,1 A 7,7 0 0 0 1,8 7,7 0 0 0 8,15 7,7 0 0 0 15,8 7,7 0 0 0 8,1 Z m 3.384766,3.5820312 c 0.083,0 0.165515,0.032103 0.228515,0.095703 l 0.955078,0.9550781 c 0.128,0.1274 0.128,0.3316844 0,0.4589844 l -4.1855465,4.1855471 -1.0117187,1.011718 -0.056641,0.05664 c -0.095,0.095 -0.2505031,0.095 -0.3457031,0 L 6.9121094,11.289062 5.9570312,10.333984 3.0722656,7.4492188 c -0.0955,-0.095 -0.0955,-0.2507032 0,-0.3457032 L 4.140625,6.0351562 c 0.0955,-0.0956 0.2502031,-0.0956 0.3457031,0 l 2.65625,2.65625 4.0117189,-4.0136718 c 0.064,-0.0636 0.147469,-0.095703 0.230469,-0.095703 z"
       id="path9"
       inkscape:connector-curvature="0" />
  </g>
</svg>

<svg xmlns="http://www.w3.org/2000/svg" width="16" height="16" version="1.1">
 <defs>
  <style id="current-color-scheme" type="text/css">
   .ColorScheme-Text { color:#d3dae3; } .ColorScheme-Highlight { color:#5294e2; }
  </style>
 </defs>
 <g>
  <path style="fill:currentColor" class="ColorScheme-Text" d="M 8,0 C 3.5817,0 0,3.5817 0,8 0,12.418 3.5817,16 8,16 12.418,16 16,12.418 16,8 16,3.5817 12.418,0 8,0 Z M 11.385,4.582 C 11.468,4.582 11.55,4.6141 11.613,4.6777 L 12.568,5.6328 C 12.696,5.7602 12.696,5.9645 12.568,6.0918 L 8.383,10.277 7.371,11.289 7.314,11.346 C 7.219,11.441 7.064,11.441 6.9688,11.346 L 6.9121,11.289 5.957,10.334 3.0723,7.449 C 2.9768,7.354 2.9768,7.199 3.0723,7.104 L 4.1406,6.0352 C 4.2361,5.9396 4.3908,5.9396 4.4863,6.0352 L 7.143,8.691 11.154,4.6777 C 11.218,4.6141 11.302,4.582 11.385,4.582 Z"/>
 </g>
</svg>
